prototype/04-socket-without-vite/public/assets/img/step1_phones.svg

<svg fill="none" viewBox="0 0 351 254" xmlns="http://www.w3.org/2000/svg">
<path d="m141.93 187.66v0.049m118.32 33.652c1.033-0.012 2.124 1e-3 3.217 0.029 5.613 0.146 9.014-3.376 8.882-8.99-0.027-1.145-0.016-2.271 0.054-3.294 0.223-3.267 1.201-5.672 1.201-8.296 0-3.339-0.252-6.693-0.626-9.993-0.157-1.382-0.575-2.67-0.575-4.057 0-1.702 0.137-3.395 0.185-5.095 0.061-2.221-0.093-4.447-0.093-6.664 0-2.313-0.066-7.001-0.086-8.391-4e-3 -0.265 0-0.522 0.013-0.787 0.022-0.429 0.059-1.182 0.105-2.113 0.295-5.974-3.891-9.959-9.869-9.778-0.83 0.025-1.642 0.036-2.408 0.027-3.303-0.042-5.617-0.726-8.458-0.86-2.031-0.095-4.065-0.191-6.104-0.253-5.521-0.168-11.103-0.099-16.639-0.099-7.045 0-14.12 0.254-21.082 0.632-2.915 0.158-5.631 0.58-8.558 0.58-3.59 0-7.161-0.139-10.748-0.187-4.685-0.062-9.382 0.093-14.059 0.093-5.768 0-11.422-0.38-17.18-0.46-5.398-0.075-14.571-0.06-15.039-0.059h-0.041v0c-6.162-0.019-12.474 6.387-12.15 12.54 7e-3 0.119 0.013 0.228 0.019 0.327 0.167 2.617-0.014 5.672-0.014 8.296 0 3.34-0.252 6.693-0.626 9.993-0.157 1.382-0.575 2.67-0.575 4.057 0 1.702 0.138 3.395 0.185 5.095 0.061 2.221-0.093 4.447-0.093 6.664 0 2.734 0.925 5.333 1.123 8.788 0.016 0.265 0.028 0.537 0.037 0.813 0.209 6.325 5.7 11.7 12.023 11.445v0c0.441-0.017 0.311 0.016 0.751 0.052 1.565 0.126 5.552 0.417 7.8 0.311 2.031-0.096 4.065-0.192 6.104-0.254 5.521-0.168 11.103-0.098 16.639-0.098 7.045 0 14.12 0.254 21.082 0.631 2.915 0.158 5.631 0.58 8.558 0.58 3.59 0 7.161-0.139 10.748-0.186 4.685-0.062 9.382 0.093 14.059 0.093 5.768 0 11.422-0.381 17.18-0.461 5.54-0.077 9.52-0.61 15.058-0.671z" stroke="#111010" stroke-linecap="round" stroke-width="2.4412"/>
<path d="m314.66 120.32h-0.049m-33.652 118.32c0.011 1.033-2e-3 2.125-0.03 3.217-0.146 5.613 3.377 9.014 8.99 8.883 1.146-0.027 2.271-0.017 3.295 0.053 3.266 0.224 5.671 1.201 8.295 1.201 3.34 0 6.694-0.252 9.993-0.626 1.383-0.157 2.67-0.575 4.057-0.575 1.702 0 3.395 0.138 5.095 0.185 2.221 0.061 4.447-0.093 6.664-0.093 2.313 0 7.001-0.066 8.391-0.086 0.265-4e-3 0.522 0 0.787 0.013 0.429 0.022 1.182 0.059 2.113 0.105 5.974 0.295 9.959-3.891 9.778-9.869-0.025-0.829-0.036-1.642-0.026-2.408 0.041-3.303 0.725-5.617 0.859-8.458 0.096-2.031 0.191-4.065 0.253-6.104 0.169-5.52 0.099-11.103 0.099-16.639 0-7.044-0.254-14.12-0.632-21.081-0.158-2.916-0.579-5.632-0.579-8.559 0-3.59 0.138-7.161 0.186-10.748 0.062-4.685-0.093-9.382-0.093-14.059 0-5.768 0.38-11.422 0.46-17.179 0.076-5.398 0.06-14.571 0.059-15.04v-0.041 0c0.02-6.162-6.387-12.474-12.54-12.149-0.119 6e-3 -0.228 0.012-0.327 0.019-2.617 0.166-5.672-0.015-8.296-0.015-3.339 0-6.693-0.251-9.993-0.626-1.382-0.157-2.67-0.575-4.057-0.575-1.702 0-3.395 0.138-5.095 0.185-2.221 0.062-4.447-0.092-6.664-0.092-2.734 0-5.333 0.924-8.787 1.123-0.266 0.015-0.538 0.027-0.814 0.036-6.325 0.209-11.7 5.701-11.445 12.024v0c0.018 0.44-0.016 0.311-0.051 0.75-0.126 1.566-0.418 5.552-0.312 7.801 0.096 2.031 0.192 4.065 0.254 6.104 0.168 5.52 0.098 11.103 0.098 16.638 0 7.045-0.254 14.12-0.631 21.082-0.158 2.916-0.58 5.631-0.58 8.558 0 3.59 0.139 7.162 0.187 10.749 0.062 4.685-0.094 9.381-0.094 14.058 0 5.768 0.381 11.423 0.461 17.18 0.077 5.541 0.61 9.52 0.672 15.058z" stroke="#111010" stroke-linecap="round" stroke-width="2.4412"/>
<path d="m238.68 14.932h-0.049m-33.652 118.32c0.012 1.033-1e-3 2.124-0.029 3.217-0.146 5.613 3.376 9.014 8.989 8.882 1.146-0.027 2.271-0.016 3.295 0.054 3.266 0.223 5.672 1.201 8.296 1.201 3.339 0 6.693-0.252 9.993-0.626 1.382-0.157 2.669-0.575 4.057-0.575 1.702 0 3.395 0.137 5.095 0.184 2.221 0.062 4.447-0.092 6.664-0.092 2.313 0 7.001-0.066 8.39-0.086 0.266-4e-3 0.523 0 0.788 0.013 0.428 0.021 1.182 0.059 2.113 0.105 5.974 0.295 9.958-3.891 9.778-9.869-0.025-0.83-0.037-1.642-0.027-2.408 0.042-3.303 0.725-5.617 0.859-8.458 0.096-2.031 0.192-4.065 0.254-6.104 0.168-5.521 0.098-11.103 0.098-16.639 0-7.0447-0.254-14.12-0.631-21.082-0.158-2.9157-0.58-5.6315-0.58-8.5585 0-3.5899 0.139-7.1613 0.187-10.748 0.062-4.6848-0.094-9.3815-0.094-14.059 0-5.7679 0.381-11.422 0.461-17.18 0.075-5.398 0.06-14.571 0.059-15.039v-0.0413 0c0.019-6.1617-6.387-12.474-12.54-12.149-0.119 0.00627-0.229 0.01256-0.328 0.01887-2.616 0.16676-5.671-0.01425-8.295-0.01425-3.34 0-6.694-0.25182-9.994-0.62619-1.382-0.1568-2.669-0.57487-4.056-0.57487-1.702 0-3.395 0.13759-5.095 0.18478-2.221 0.06163-4.448-0.09239-6.665-0.09239-2.734 0-5.333 0.92464-8.787 1.1229-0.266 0.01526-0.537 0.0273-0.814 0.03644-6.324 0.2091-11.699 5.7007-11.445 12.024v0c0.018 0.4406-0.015 0.3109-0.051 0.7503-0.126 1.5657-0.417 5.5524-0.311 7.8006 0.096 2.031 0.191 4.0652 0.254 6.1042 0.168 5.5203 0.098 11.103 0.098 16.639 0 7.0447-0.254 14.12-0.632 21.082-0.158 2.9157-0.579 5.6314-0.579 8.5584 0 3.59 0.138 7.1613 0.186 10.748 0.062 4.6847-0.093 9.3814-0.093 14.058 0 5.768 0.38 11.422 0.461 17.18 0.077 5.54 0.61 9.52 0.671 15.058z" stroke="#111010" stroke-linecap="round" stroke-width="2.4412"/>
</svg>

<svg width="351" height="254" viewBox="0 0 351 254" fill="none" xmlns="http://www.w3.org/2000/svg">
<path d="M141.932 187.662V187.711M260.254 221.363C261.287 221.351 262.378 221.364 263.471 221.392C269.084 221.538 272.485 218.016 272.353 212.402C272.326 211.257 272.337 210.131 272.407 209.108C272.63 205.841 273.608 203.436 273.608 200.812C273.608 197.473 273.356 194.119 272.982 190.819C272.825 189.437 272.407 188.149 272.407 186.762C272.407 185.06 272.544 183.367 272.592 181.667C272.653 179.446 272.499 177.22 272.499 175.003C272.499 172.69 272.433 168.002 272.413 166.612C272.409 166.347 272.413 166.09 272.426 165.825C272.448 165.396 272.485 164.643 272.531 163.712C272.826 157.738 268.64 153.753 262.662 153.934C261.832 153.959 261.02 153.97 260.254 153.961C256.951 153.919 254.637 153.235 251.796 153.101C249.765 153.006 247.731 152.91 245.692 152.848C240.171 152.68 234.589 152.749 229.053 152.749C222.008 152.749 214.933 153.003 207.971 153.381C205.056 153.539 202.34 153.961 199.413 153.961C195.823 153.961 192.252 153.822 188.665 153.774C183.98 153.712 179.283 153.867 174.606 153.867C168.838 153.867 163.184 153.487 157.426 153.407C152.028 153.332 142.855 153.347 142.387 153.348C142.372 153.348 142.361 153.348 142.346 153.348V153.348C136.184 153.329 129.872 159.735 130.196 165.888C130.203 166.007 130.209 166.116 130.215 166.215C130.382 168.832 130.201 171.887 130.201 174.511C130.201 177.851 129.949 181.204 129.575 184.504C129.418 185.886 129 187.174 129 188.561C129 190.263 129.138 191.956 129.185 193.656C129.246 195.877 129.092 198.103 129.092 200.32C129.092 203.054 130.017 205.653 130.215 209.108C130.231 209.373 130.243 209.645 130.252 209.921C130.461 216.246 135.952 221.621 142.275 221.366V221.366C142.716 221.349 142.586 221.382 143.026 221.418C144.591 221.544 148.578 221.835 150.826 221.729C152.857 221.633 154.891 221.537 156.93 221.475C162.451 221.307 168.033 221.377 173.569 221.377C180.614 221.377 187.689 221.631 194.651 222.008C197.566 222.166 200.282 222.588 203.209 222.588C206.799 222.588 210.37 222.449 213.957 222.402C218.642 222.34 223.339 222.495 228.016 222.495C233.784 222.495 239.438 222.114 245.196 222.034C250.736 221.957 254.716 221.424 260.254 221.363Z" stroke="#111010" stroke-width="2.44118" stroke-linecap="round"/>
<path d="M314.662 120.324L314.613 120.324M280.961 238.646C280.972 239.679 280.959 240.771 280.931 241.863C280.785 247.476 284.308 250.877 289.921 250.746C291.067 250.719 292.192 250.729 293.216 250.799C296.482 251.023 298.887 252 301.511 252C304.851 252 308.205 251.748 311.504 251.374C312.887 251.217 314.174 250.799 315.561 250.799C317.263 250.799 318.956 250.937 320.656 250.984C322.877 251.045 325.103 250.891 327.32 250.891C329.633 250.891 334.321 250.825 335.711 250.805C335.976 250.801 336.233 250.805 336.498 250.818C336.927 250.84 337.68 250.877 338.611 250.923C344.585 251.218 348.57 247.032 348.389 241.054C348.364 240.225 348.353 239.412 348.363 238.646C348.404 235.343 349.088 233.029 349.222 230.188C349.318 228.157 349.413 226.123 349.475 224.084C349.644 218.564 349.574 212.981 349.574 207.445C349.574 200.401 349.32 193.325 348.942 186.364C348.784 183.448 348.363 180.732 348.363 177.805C348.363 174.215 348.501 170.644 348.549 167.057C348.611 162.372 348.456 157.675 348.456 152.998C348.456 147.23 348.836 141.576 348.916 135.819C348.992 130.421 348.976 121.248 348.975 120.779C348.975 120.764 348.975 120.753 348.975 120.738V120.738C348.995 114.576 342.588 108.264 336.435 108.589C336.316 108.595 336.207 108.601 336.108 108.608C333.491 108.774 330.436 108.593 327.812 108.593C324.473 108.593 321.119 108.342 317.819 107.967C316.437 107.81 315.149 107.392 313.762 107.392C312.06 107.392 310.367 107.53 308.667 107.577C306.446 107.639 304.22 107.485 302.003 107.485C299.269 107.485 296.67 108.409 293.216 108.608C292.95 108.623 292.678 108.635 292.402 108.644C286.077 108.853 280.702 114.345 280.957 120.668V120.668C280.975 121.108 280.941 120.979 280.906 121.418C280.78 122.984 280.488 126.97 280.594 129.219C280.69 131.25 280.786 133.284 280.848 135.323C281.016 140.843 280.946 146.426 280.946 151.961C280.946 159.006 280.692 166.081 280.315 173.043C280.157 175.959 279.735 178.674 279.735 181.601C279.735 185.191 279.874 188.763 279.922 192.35C279.984 197.035 279.828 201.731 279.828 206.408C279.828 212.176 280.209 217.831 280.289 223.588C280.366 229.129 280.899 233.108 280.961 238.646Z" stroke="#111010" stroke-width="2.44118" stroke-linecap="round"/>
<path d="M238.681 14.9317L238.632 14.9317M204.98 133.254C204.992 134.287 204.979 135.378 204.951 136.471C204.805 142.084 208.327 145.485 213.94 145.353C215.086 145.326 216.211 145.337 217.235 145.407C220.501 145.63 222.907 146.608 225.531 146.608C228.87 146.608 232.224 146.356 235.524 145.982C236.906 145.825 238.193 145.407 239.581 145.407C241.283 145.407 242.976 145.544 244.676 145.591C246.897 145.653 249.123 145.499 251.34 145.499C253.653 145.499 258.341 145.433 259.73 145.413C259.996 145.409 260.253 145.413 260.518 145.426C260.946 145.447 261.7 145.485 262.631 145.531C268.605 145.826 272.589 141.64 272.409 135.662C272.384 134.832 272.372 134.02 272.382 133.254C272.424 129.951 273.107 127.637 273.241 124.796C273.337 122.765 273.433 120.731 273.495 118.692C273.663 113.171 273.593 107.589 273.593 102.053C273.593 95.0083 273.339 87.933 272.962 80.9715C272.804 78.0558 272.382 75.34 272.382 72.413C272.382 68.8231 272.521 65.2517 272.569 61.6646C272.631 56.9798 272.475 52.2831 272.475 47.606C272.475 41.8381 272.856 36.1838 272.936 30.4262C273.011 25.0282 272.996 15.8554 272.995 15.3871C272.995 15.372 272.995 15.3609 272.995 15.3458V15.3458C273.014 9.18408 266.608 2.87211 260.455 3.19644C260.336 3.20271 260.226 3.209 260.127 3.21531C257.511 3.38207 254.456 3.20106 251.832 3.20106C248.492 3.20106 245.138 2.94924 241.838 2.57487C240.456 2.41807 239.169 2 237.782 2C236.08 2 234.387 2.13759 232.687 2.18478C230.466 2.24641 228.239 2.09239 226.022 2.09239C223.288 2.09239 220.689 3.01703 217.235 3.21531C216.969 3.23057 216.698 3.24261 216.421 3.25175C210.097 3.46085 204.722 8.95244 204.976 15.2753V15.2753C204.994 15.7159 204.961 15.5862 204.925 16.0256C204.799 17.5913 204.508 21.578 204.614 23.8262C204.71 25.8572 204.805 27.8914 204.868 29.9304C205.036 35.4507 204.966 41.0335 204.966 46.5691C204.966 53.6138 204.712 60.689 204.334 67.6506C204.176 70.5663 203.755 73.282 203.755 76.209C203.755 79.799 203.893 83.3703 203.941 86.9575C204.003 91.6422 203.848 96.3389 203.848 101.016C203.848 106.784 204.228 112.438 204.309 118.196C204.386 123.736 204.919 127.716 204.98 133.254Z" stroke="#111010" stroke-width="2.44118" stroke-linecap="round"/>
</svg>
